X: 96
M: 2/4
L: 1/16
K: D
dcde f2ed | cBcd e2A2 | dcde f2ed | e2a2a2 A2 |\
dcde f2ed | cBcd e2A2 | BcdB edcB | A2d2d2 :|
|: A2 |\
d2a2f2a2 | bagf e2A2 | d2a2 f2a2 | d2a2a2 A2 |\
d2a2f2a2 | bagf e2A2 | BcdB edcB | A2d2d2 H:|

